X:1
T:The best is yet to come
M:4/4
Q:200
R:air
K:G
L:1/8
A4 G4|A4 E4|G4 A4|A8|z4 A4|G4 A4|c2B2 G4|A4 E4-|E6 z2|c4 B4|c4 A4|G4 A4|E8|
A4 c4|B4 c2B2|A6 B2|E8|A4 c4|B4 c2B2|A6 B2|E8|A4 c4|B4 c2B2|A6 B2|E8|A6 B2|
c4 c2d2|e2d2 c2B2|A4 G4|A6 B2|c4 c2d2|e4 d4|c4 B4-|B4 A4-|A4 G4-|G8|A8-|A8-|A4 z2 E>A||
e8-|e3A/B/ E4|z8|a6 b2|gfga g4|a/>g/fde/ f/e/d/e/ A2-|A6 {B}A/G/E-|E|B8-|B3c BG A/G/E|BG A6-|A8-|A8||
A7 B|c7 A|B7 A|G7 E|A6 AB|c6 d<e|d8-|d8|A7 B|c7 A|B7 A|G8|B7 c|B6 AG|A2 A6-|A8|
A7 B|c7 A|B7 A|G7 E|A6 AB|c6 de|d8-|d8|A7 B|c7 A|B7 A|G8|B4 B3c|B4 ~A4|A8-|A8|
c6 BA|c2c2- c3E|c6 BA|c6 z2|B6 AG|B2B2- B3E|c6 Bc|A6 z2|c6 BA|c7 E|c6 dc|B6 z2|B6 AG|A8-A7 E|
c6 BA|c7 E|c6 BA|c7 E|B6 AG|B6 cB|A6 cB|A7 E|c6 BA|c7 E|c6 dc|B8|B6 dc|B6 cB|A8-|A4 z2E2|
A4 {B}AGAB|c6 cA|B6 ~B2|G6 ME2|A4 {B}AGAB|c6 Pe2|d8- |d4 z2ME2|A4 {B}AGAB|c6 cA|B6 B{B}A|G8|B6 {c}Bc|G6-GAAG|A8-|A8|
c6 BA|c2 c6|c6 BA|c7 A|B6 AG|B2 B4 cB|A6 cB|A7 E|c6 BA|c7 E|c6 dc|B7 E|B6 dc|B4 ccB2|A4 A4-|A8|
|:c2 c4 B2|A6 G2|B2 B4 A2|G8||1,2 B2 B4 A2|B3B BABc|A8-|A8:|3 B2 B4 A2|B4 c2B2|A8-|A8|c2 c4 B2|A6 G2|B2 B4 A2|G8|B2 B4 A2|B3B BABc|A8-|A8|]

